X: 26312
T: Memories Of Sligo
R: barndance
M: 4/4
K: Gmajor
|:B>c|d2 e>d B2 G>d|e2 A2 A2- A>B|(3cBA (3GFE D>d^c>d|e<d^c>d B2- B>=c|
(3ded e>d B2 (3GBd|(3efe A2 A2- A>B|(3cBA (3GFE D>c (3cBA|1 G2 G2 G2:|2 G2 g2 g2||
K: CMaj
|:(3agf|(3efe c2 c>e (3gfe|a2 d2 d2 f>e|(3ded B2 B2- B>g|g<ec>e g>a (3agf|
(3gag c>B c>eg>e|a2 d>^c d>ef>e|(3ded B2 (3ABA G2|G>f (3fed c2:|

